X: 1
T: Barbro Pers brudpolska
O: \"Alvdalen
R: \"Alvdals-polska
Z: 2005 John Chambers <jc@trillian.mit.edu>
S: handwritten MS via Amy Parker
M: 3/4
L: 1/16
%%slurgraces 1
K: F
V: 1 brace=2
|: ({cdc=B}c3f) a4 g4- | {a}(3:2:5g4(e2f2)e2c2 d4 \
| (3d4 B4 d4 f3e |1 d3(c BA)Bd c4 :|2 d3(c BA)Bd c3{dc}B ||
|: (G3B) d4 ~f3e | d2cc (cB3) ~B3A \
|  (G3B) d4 ~f3e | d2cc (cB3) ~B3A \
| (3G4 (G4 B4) ABA^F |1 ^F2G2 G4 c3B :|2 ^F2G2 G8 |]
V: 2
|: (A3c) [f4c4] [e4c4] | (3:2:5[e4c4](c2d2)c2A2 B4 \
| (3B4 F4 B4 d3c |1 [B4F4] [B4F4] [A4F4] :|2 B3(A GF)GB A4 ||
|: (D3G) B4 ~d3c | B2AA (AG3) ~G3F \
|  (D3G) B4 ~d3c | B2AA (AG3) ~G3F \
| (3D4 (D4 G4) ^FEDC |1 A,2B,2 [D4G,4] G3F :|2 A,2B,2 [D8G,8] |]
